build/system/NetworkServicesSolid.svg

<svg xmlns="http://www.w3.org/2000/svg" fill="none" viewBox="0 0 24 24" focusable="false"><path d="M0 0H24V24H0z"/><path fill="#74767B" d="M16.0559 7.15341C16.1488 7.50016 16.5052 7.70594 16.8519 7.61303C17.1987 7.52012 17.4045 7.1637 17.3116 6.81695L16.5485 3.96923C16.4556 3.62248 16.0992 3.4167 15.7524 3.50961L12.9 4.27391C12.5533 4.36682 12.3475 4.72324 12.4404 5.06999C12.5333 5.41675 12.8898 5.62253 13.2365 5.52961L14.5703 5.17223L12.6281 8.53831C12.3158 8.44988 11.9862 8.40256 11.6456 8.40256C9.88052 8.40256 8.41226 9.6733 8.10574 11.3498L6.09957 11.3498C5.82819 10.5425 5.06522 9.96091 4.16641 9.96091C3.04032 9.96091 2.12744 10.8738 2.12744 11.9999C2.12744 13.126 3.04032 14.0388 4.16641 14.0388C5.06526 14.0388 5.82826 13.4572 6.0996 12.6498L8.10523 12.6498C8.41064 14.3277 9.87955 15.5999 11.6456 15.5999C11.9864 15.5999 12.3162 15.5525 12.6287 15.4639L14.5703 18.8289L13.2365 18.4716C12.8898 18.3786 12.5333 18.5844 12.4404 18.9312C12.3475 19.2779 12.5533 19.6343 12.9 19.7273L15.7524 20.4916C16.0992 20.5845 16.4556 20.3787 16.5485 20.0319L17.3116 17.1842C17.4045 16.8375 17.1987 16.481 16.8519 16.3881C16.5052 16.2952 16.1488 16.501 16.0559 16.8478L15.6982 18.1825L13.7965 14.8866C14.5101 14.3538 15.0195 13.5623 15.1857 12.6512L18.9847 12.6502L18.0077 13.6271C17.7539 13.8809 17.7539 14.2925 18.0077 14.5463C18.2616 14.8002 18.6731 14.8002 18.927 14.5463L21.0116 12.4617C21.2655 12.2078 21.2655 11.7963 21.0116 11.5424L18.9235 9.45433C18.6697 9.20049 18.2581 9.20049 18.0043 9.45433C17.7505 9.70817 17.7505 10.1197 18.0043 10.3736L18.9809 11.3502L15.1857 11.3512C15.0194 10.4398 14.5099 9.64827 13.796 9.11542L15.6982 5.81862L16.0559 7.15341Z"/></svg>

<svg xmlns="http://www.w3.org/2000/svg" fill="none" viewBox="0 0 24 24" focusable="false"><path fill="#74767B" d="M16.05 7.15c.09.35.45.55.8.46a.66.66 0 0 0 .46-.8l-.77-2.85a.653.653 0 0 0-.79-.46l-2.86.77c-.34.09-.55.45-.45.8.09.34.44.55.79.45l1.34-.35-1.95 3.36c-.31-.09-.64-.13-.98-.13-1.76 0-3.23 1.27-3.54 2.94H6.09a2.04 2.04 0 0 0-3.97.65c0 1.13.92 2.04 2.04 2.04.9 0 1.66-.58 1.93-1.39H8.1a3.6 3.6 0 0 0 3.54 2.95c.34 0 .67-.04.98-.13l1.95 3.36-1.34-.35c-.35-.1-.7.11-.79.46-.1.34.11.7.45.79l2.86.77c.34.09.7-.12.79-.46l.77-2.85c.09-.35-.12-.7-.46-.8a.66.66 0 0 0-.8.46l-.36 1.34-1.9-3.3c.72-.53 1.22-1.32 1.39-2.23h3.8l-.98.97c-.25.26-.25.67 0 .92.26.26.67.26.92 0l2.09-2.08c.25-.26.25-.67 0-.92l-2.09-2.09a.66.66 0 0 0-.92 0c-.25.25-.25.66 0 .92l.98.98h-3.8a3.6 3.6 0 0 0-1.39-2.24l1.9-3.3z"/></svg>
